X:7873
T:Jeannie Oban
M:4/4
L:1/8
Q:150
C:Stephen P. McNally
R:hornpipe
N:For my granny Jean Palmer, a troubadour if there ever was one.
H:Written early in 1997
K:D
|:D>FF>F D>FA>F|G>BB>B g>fe>d|e>Ac>e A>ce>c|d>cd>e f>dA>F|!
D>FF>F D>FA>F|G>BB>B g>fe>d|e>Ac>f A>cg>c|g>ed>c d4:|!
|:e>Ac>e A>ce>c|f>Ac>f A>cf>c|g>Ac>f A>ce>c|d>cd>e f>dA>F|!
G>BB>B g>fe>d|F>AA>A f>ed>c|B>dc>d A>dc>d|f>ed>c d4:|
